dist/img/docs/pdf_icon.svg

<svg width="50" height="72" viewBox="0 0 50 72" fill="none" xmlns="http://www.w3.org/2000/svg">
<g clip-path="url(#clip0_439_2121)">
<path d="M50 56.5744H0V0H37.4896L50 12.5581V56.5744Z" fill="#EAEAEA"/>
<path d="M37.4902 0L50.0007 12.5581H37.4902V0Z" fill="#CAC9C9"/>
<path d="M50 72H0V56.5535H50V72Z" fill="#D9261C"/>
<path d="M19.015 59.8814C18.7022 59.7977 18.035 59.7558 17.0133 59.7558H14.3027V68.1698H15.9916V65.0093H17.0967C17.8682 65.0093 18.452 64.9674 18.8482 64.8837C19.1401 64.8209 19.432 64.6953 19.7239 64.486C20.0158 64.2767 20.2452 64.0046 20.4328 63.6488C20.6205 63.293 20.7039 62.8535 20.7039 62.3511C20.7039 61.8488 20.5371 61.1372 20.2243 60.7186C19.8907 60.3 19.4946 60.0279 19.015 59.9023V59.8814ZM18.7648 63.0209C18.6397 63.2093 18.452 63.3558 18.2435 63.4395C18.0142 63.5232 17.5763 63.5651 16.9091 63.5651H15.9916V61.1791H16.8048C17.4095 61.1791 17.8265 61.1791 18.0142 61.2418C18.2852 61.2837 18.5146 61.4093 18.7022 61.6186C18.8899 61.8279 18.9733 62.0791 18.9733 62.3721C18.9733 62.6651 18.9107 62.8325 18.7856 63.0209H18.7648ZM28.0225 60.6977C27.668 60.3209 27.251 60.0697 26.7506 59.9232C26.3753 59.8186 25.854 59.7558 25.166 59.7558H22.08V68.1698H25.2702C25.8957 68.1698 26.3961 68.107 26.7715 68.0023C27.2719 67.8349 27.668 67.6256 27.9599 67.3325C28.3561 66.9558 28.648 66.4535 28.8565 65.8465C29.0233 65.3442 29.1067 64.7581 29.1067 64.0674C29.1067 63.3767 29.0233 62.6232 28.8357 62.0791C28.648 61.5349 28.377 61.0953 28.0434 60.7186L28.0225 60.6977ZM27.1885 65.5116C27.0842 65.8884 26.9174 66.1604 26.7506 66.3279C26.5838 66.4953 26.3336 66.6 26.0625 66.6837C25.854 66.7465 25.5204 66.7674 25.0408 66.7674H23.769V61.2H24.5196C25.2077 61.2 25.6664 61.2209 25.9166 61.2837C26.2293 61.3465 26.5004 61.493 26.7089 61.6814C26.9174 61.8698 27.0842 62.1418 27.1885 62.4977C27.2927 62.8535 27.3553 63.3349 27.3553 63.9837C27.3553 64.6325 27.2927 65.1558 27.1885 65.5325V65.5116ZM32.2343 61.1791V63.1674H35.7373V64.5907H32.2343V68.1698H30.5454V59.7558H36.2794V61.1791H32.2343Z" fill="white"/>
<path d="M13.178 45.9628C12.3023 45.9628 11.5308 45.5651 10.8844 44.7488C9.84189 43.4512 9.92529 41.986 11.0929 40.7302C12.6359 39.0977 15.972 37.8837 19.5792 37.0465C20.3506 35.6023 21.1013 33.9907 21.8102 32.2953C22.394 30.893 22.8736 29.5326 23.2906 28.2558C21.6851 25.4093 20.4758 22.4791 20.4966 20.3651C20.5175 18.1674 21.8519 17.5395 22.6442 17.3512C24.1872 16.9953 25.3757 17.5814 25.9386 18.9837C26.731 20.9512 26.168 24.4674 25.1046 28.0465C26.6684 30.6837 28.6909 33.4256 30.7343 35.686C34.4874 35.6232 38.032 36.0209 39.7418 37.2558C40.9511 38.1349 41.2431 39.4116 40.5341 40.7721C39.7835 42.1953 38.4491 42.7605 36.781 42.3209C34.5291 41.7558 32.027 39.5372 30.0045 37.3814C28.5867 37.4233 27.0646 37.5488 25.5008 37.7372C23.8119 37.9465 22.2064 38.1977 20.7051 38.5326C18.9954 41.5674 17.0354 44.2674 15.1171 45.3977C14.4499 45.7953 13.8244 45.9837 13.2197 45.9837L13.178 45.9628ZM18.4324 39.0767C15.4924 39.8721 13.2823 40.8767 12.3023 41.9023C11.6976 42.5512 11.6559 43.0535 12.1772 43.7232C12.5733 44.2256 13.1154 44.6023 14.2205 43.9535C15.4716 43.2209 16.9311 41.4837 18.4115 39.0977L18.4324 39.0767ZM32.319 37.3605C34.1121 39.1186 35.8219 40.3535 37.1772 40.7093C38.324 41.0023 38.7618 40.5209 39.0537 39.9977C39.3873 39.3907 39.3039 39.0349 38.7618 38.6372C37.6984 37.8837 35.3632 37.4442 32.319 37.3814V37.3605ZM24.4374 30.1395C24.1038 31.1023 23.7493 32.0442 23.374 32.9442C22.8736 34.1372 22.3106 35.393 21.7059 36.6279C22.9153 36.3977 24.1455 36.2093 25.2923 36.0837C26.3557 35.9581 27.4607 35.8535 28.5867 35.7907C27.6067 34.6395 26.8352 33.6139 26.4182 33.0279C25.7718 32.1279 25.1046 31.1651 24.4582 30.1395H24.4374ZM23.0195 18.9837C22.7485 19.0465 22.1855 19.1721 22.1647 20.386C22.1647 21.8093 22.8319 23.7977 23.9578 25.9744C24.6876 23.107 24.8544 20.7837 24.3957 19.6116C24.1872 19.0674 23.8744 18.7744 23.0195 18.9837Z" fill="#D9261C"/>
</g>
<defs>
<clipPath id="clip0_439_2121">
<rect width="50" height="72" fill="white"/>
</clipPath>
</defs>
</svg>

<svg width="50" height="72" viewBox="0 0 50 72" fill="none" xmlns="http://www.w3.org/2000/svg"><g clip-path="url(#clip0_439_2121)"><path d="M50 56.574H0V0h37.49L50 12.558v44.016z" fill="#EAEAEA"/><path d="M37.49 0L50 12.558H37.49V0z" fill="#CAC9C9"/><path d="M50 72H0V56.553h50V72z" fill="#D9261C"/><path d="M19.015 59.881c-.313-.083-.98-.125-2.002-.125h-2.71v8.414h1.689v-3.16h1.105c.771 0 1.355-.043 1.751-.126a2.341 2.341 0 001.585-1.235c.188-.356.27-.796.27-1.298s-.166-1.214-.479-1.632c-.333-.419-.73-.691-1.209-.817v-.02zm-.25 3.14a1.138 1.138 0 01-.521.419c-.23.083-.668.125-1.335.125h-.917V61.18h.813c.605 0 1.021 0 1.21.063.27.042.5.167.687.377.188.209.271.46.271.753s-.062.46-.187.649h-.021zm9.258-2.323a2.763 2.763 0 00-1.272-.775c-.376-.104-.897-.167-1.585-.167H22.08v8.414h3.19c.626 0 1.126-.063 1.502-.168.5-.167.896-.376 1.188-.67.396-.376.688-.878.896-1.485.167-.503.25-1.089.25-1.78 0-.69-.083-1.444-.27-1.988a3.962 3.962 0 00-.793-1.36l-.02-.021zm-.834 4.814c-.105.376-.272.648-.438.816-.167.167-.417.272-.689.356-.208.063-.542.083-1.021.083h-1.272V61.2h.75c.689 0 1.147.02 1.398.084.312.063.583.209.792.397.208.189.375.46.48.817.104.355.166.837.166 1.486 0 .648-.062 1.172-.166 1.548v-.02zm5.045-4.333v1.988h3.503v1.424h-3.503v3.579h-1.689v-8.414h5.734v1.423h-4.045z" fill="#fff"/><path d="M13.178 45.963c-.876 0-1.647-.398-2.294-1.214-1.042-1.298-.959-2.763.209-4.019 1.543-1.632 4.879-2.846 8.486-3.683a56.208 56.208 0 002.231-4.752 54.363 54.363 0 001.48-4.04c-1.605-2.846-2.814-5.776-2.793-7.89.02-2.198 1.355-2.825 2.147-3.014 1.543-.356 2.732.23 3.295 1.633.792 1.967.229 5.483-.834 9.063a49.355 49.355 0 005.63 7.639c3.752-.063 7.297.335 9.007 1.57 1.21.879 1.501 2.156.792 3.516-.75 1.423-2.085 1.989-3.753 1.549-2.252-.565-4.754-2.784-6.776-4.94-1.418.042-2.94.168-4.504.356-1.69.21-3.295.46-4.796.796-1.71 3.034-3.67 5.734-5.588 6.865-.667.397-1.293.586-1.897.586l-.042-.021zm5.254-6.886c-2.94.795-5.15 1.8-6.13 2.825-.604.65-.646 1.151-.125 1.821.396.503.938.88 2.043.23 1.252-.732 2.711-2.47 4.191-4.855l.021-.021zM32.32 37.36c1.793 1.758 3.503 2.992 4.858 3.348 1.147.293 1.585-.188 1.877-.711.333-.607.25-.963-.292-1.36-1.064-.754-3.399-1.194-6.443-1.257v-.02zm-7.882-7.221a48.965 48.965 0 01-1.063 2.804 70.124 70.124 0 01-1.668 3.684 46.55 46.55 0 013.586-.544 53.548 53.548 0 013.295-.293 42.551 42.551 0 01-2.169-2.763 57.574 57.574 0 01-1.96-2.888h-.02zM23.02 18.983c-.27.063-.833.188-.854 1.402 0 1.423.667 3.412 1.793 5.588.73-2.867.896-5.19.438-6.362-.209-.545-.522-.838-1.377-.628z" fill="#D9261C"/></g><defs><clipPath id="clip0_439_2121"><path fill="#fff" d="M0 0h50v72H0z"/></clipPath></defs></svg>
